packages/ui-icons/svg/Solid/home.svg

<svg viewBox="0 0 1920 1920" version="1.1" xmlns="http://www.w3.org/2000/svg">
    <path d="M960.160167,1083.13128 C867.881444,1083.13128 792.786424,1008.03626 792.786424,915.757541 C792.786424,823.478817 867.881444,748.383797 960.160167,748.383797 C1052.43889,748.383797 1127.53391,823.478817 1127.53391,915.757541 C1127.53391,1008.03626 1052.43889,1083.13128 960.160167,1083.13128 L960.160167,1083.13128 Z M960.160167,0 L28,932.048585 L107.000407,1011.04899 L234.873947,883.063869 L234.873947,1920 L792.786424,1920 L792.786424,1362.08752 L1127.53391,1362.08752 L1127.53391,1920 L1685.44639,1920 L1685.44639,883.063869 L1813.31993,1011.04899 L1892.32033,932.048585 L960.160167,0 Z" stroke="none" stroke-width="1" fill-rule="evenodd"/>
</svg>

<svg viewBox="0 0 1920 1920" xmlns="http://www.w3.org/2000/svg">
    <path d="M960.16 1083.131c-92.279 0-167.374-75.095-167.374-167.373 0-92.28 75.095-167.374 167.374-167.374s167.374 75.095 167.374 167.374c0 92.278-75.095 167.373-167.374 167.373ZM960.16 0 28 932.049l79 79 127.874-127.985V1920h557.912v-557.912h334.748V1920h557.912V883.064l127.874 127.985 79-79L960.16 0Z" fill-rule="evenodd"/>
</svg>
